!! 00047] TT[KA
!! NN
!!!OTL: Bian qu shi chang
!!!ARE: Asia, China, Gansu, Longdong, near Shanxi Shaanxi)
!! Ethnic Group: Han
!! I, 125
!!!SCT: C0038
!!!YEM: Copyright 1995, estate of Helmut Schaffrath.
**kern
*ICvox
*Ivox
*M2/4
*k[]
*C:
{8dd
8dd
8dd
16cc
16a
=1
4dd
4dd
=2
8gg
8dd
8dd
16cc
16a
=3
4g
4g}
=4
{16a
8dd
16dd
16dd
16ee
16dd
16cc
=5
16a
16a
16a
16cc
16d
16d
16d
16d
=6
16g
16g#
16f
16g
4a
=7
8cc
16cc
16a
16g
16a
16g
16e
=8
4d
4d}
==
!!!AGN: Xiaodiao, Xiuhebao diao. Geming lishi minge
!! Zwei Menschen drehten einen schweren Muehlstein. Meine Frage, ob
!!    dies ein Arbeitslied sei, wurde verneint: Das sei schliesslich
!!    Hausarbeit.Die 10. Strophe endet im letzten Takt eine Oktave hoeher.
!!    Einige Akzente und ein Glissando.
!!!ONB: ESAC (Essen Associative Code) Database: CHINA
!!!AMT: simple duple
!!!AIN: vox
!!!EED: Helmut Schaffrath
!!!EEV: 1.0
*-
